rospo-icon-theme-classic-common/32x32/apps/christmas-tree.svg

<svg height="32" width="32" xmlns="http://www.w3.org/2000/svg"><path d="m16.129392 11.003064a2.7606788 2.7809493 0 0 0 -2.520484 1.38762l-3.6189847 6.314894-3.6203321 6.314893a2.7606788 2.7809493 0 0 0  .8437549 3.693079s3.4777419 2.28645 8.7866519 2.28645c5.308912 0 8.786654-2.28645 8.786654-2.28645a2.7606788 2.7809493 0 0 0  .843757-3.693079l-3.620334-6.314893-3.618984-6.314894a2.7606788 2.7809493 0 0 0 -2.261699-1.38762z" opacity=".2"/><path d="m16.129392 10.003064a2.7606788 2.7809493 0 0 0 -2.520484 1.38762l-3.6189847 6.314894-3.6203321 6.314893a2.7606788 2.7809493 0 0 0  .8437549 3.693079s3.4777419 2.28645 8.7866519 2.28645c5.308912 0 8.786654-2.28645 8.786654-2.28645a2.7606788 2.7809493 0 0 0  .843757-3.693079l-3.620334-6.314893-3.618984-6.314894a2.7606788 2.7809493 0 0 0 -2.261699-1.38762z" fill="#337f36"/><path d="m16.116453 8.002757a2.4846111 2.5028545 0 0 0 -2.268435 1.2488581l-3.257086 5.6834039-3.2582998 5.683405a2.4846111 2.5028545 0 0 0  .7593794 3.323771s3.1299684 2.057805 7.9079864 2.057805c4.778022 0 7.90799-2.057805 7.90799-2.057805a2.4846111 2.5028545 0 0 0  .75938-3.323771l-3.2583-5.683405-3.257085-5.6834039a2.4846111 2.5028545 0 0 0 -2.03553-1.2488581z" opacity=".2"/><path d="m16.116453 7.002757a2.4846111 2.5028545 0 0 0 -2.268435 1.2488581l-3.257086 5.6834039-3.2582998 5.683405a2.4846111 2.5028545 0 0 0  .7593794 3.323771s3.1299684 2.057805 7.9079864 2.057805c4.778022 0 7.90799-2.057805 7.90799-2.057805a2.4846111 2.5028545 0 0 0  .75938-3.323771l-3.2583-5.683405-3.257085-5.6834039a2.4846111 2.5028545 0 0 0 -2.03553-1.2488581z" fill="#3e9d43"/><path d="m16.090574 7.0021539a1.9324741 1.9466633 0 0 0 -1.764337.9713334l-2.533288 4.4204217-2.5342309 4.420424a1.9324741 1.9466633 0 0 0  .5906281 2.585153s2.4344178 1.600514 6.1506518 1.600514c3.716237 0 6.150655-1.600514 6.150655-1.600514a1.9324741 1.9466633 0 0 0  .590629-2.585153l-2.534232-4.420424-2.533288-4.4204217a1.9324741 1.9466633 0 0 0 -1.583188-.9713334z" opacity=".2"/><path d="m16.090574 6.0021539a1.9324741 1.9466633 0 0 0 -1.764337.9713334l-2.533288 4.4204217-2.5342309 4.420424a1.9324741 1.9466633 0 0 0  .5906281 2.585153s2.4344178 1.600514 6.1506518 1.600514c3.716237 0 6.150655-1.600514 6.150655-1.600514a1.9324741 1.9466633 0 0 0  .590629-2.585153l-2.534232-4.420424-2.533288-4.4204217a1.9324741 1.9466633 0 0 0 -1.583188-.9713334z" fill="#5dc062"/><path d="m15.999821 2.9999998c-.540903.008-.926656.3454697-1.10769.9040991l.0068-.025192-.849879 3.1465076h-2.866039c-.0062-.0001037-.01216-.0001037-.01842 0-.342256.011486-.650864.1770005-.868295.4511711-.4702367.5590652-.3705707 1.0132913.226561 1.4302347l2.253322 1.7056607-.874433 2.813663c-.000975.0031-.0018.0062-.0028.0094-.133614.45461-.008.922966.328122 1.243357.0024.0024.0053.0047.0078.0071.403874.371862.971341.419125 1.427439.111328.0087-.0059.01731-.01188.02566-.01816l2.311928-1.729096 2.311917 1.729096c.0084.0062.01698.01235.02566.01816.456097.307797 1.023566.260534 1.427439-.111328.0024-.0024.0053-.0046.0078-.0071.33609-.320391.461735-.788747.328121-1.243357-.0009-.0031-.0018-.0062-.0028-.0094l-.874389-2.813663 2.253323-1.7056602c.59713-.4169442.696796-.8711703.22656-1.4302352-.21743-.2741706-.526038-.4396812-.868294-.4511712-.0062-.0001037-.01216-.0001037-.01841 0h-2.866039l-.84988-3.1465076.0068.025192c-.181231-.5586293-.566983-.8960915-1.107884-.904099z" opacity=".2"/><path d="m15.999821 1.9999998c-.540903.008-.926656.3454697-1.10769.9040991l.0068-.025192-.849879 3.1465076h-2.866039c-.0062-.0001037-.01216-.0001037-.01842 0-.342256.011486-.650864.1770005-.868295.4511711-.4702367.5590652-.3705707 1.0132913.226561 1.4302347l2.253322 1.7056612-.874433 2.8136625c-.000975.0031-.0018.0062-.0028.0094-.133614.45461-.008.922966.328122 1.243357.0024.0024.0053.0047.0078.0071.403874.371862.971341.419125 1.427439.111328.0087-.0059.01731-.01188.02566-.01816l2.311928-1.729096 2.311917 1.729096c.0084.0062.01698.01235.02566.01816.456097.307797 1.023566.260534 1.427439-.111328.0024-.0024.0053-.0046.0078-.0071.33609-.320391.461735-.788747.328121-1.243357-.0009-.0031-.0018-.0062-.0028-.0094l-.874389-2.8136628 2.253323-1.7056604c.59713-.4169442.696796-.8711703.22656-1.4302352-.21743-.2741706-.526038-.4396812-.868294-.4511712-.0062-.0001037-.01216-.0001037-.01841 0h-2.866039l-.84988-3.1465076.0068.025192c-.181231-.5586293-.566983-.8960915-1.107884-.904099z" fill="#ae3030"/><path d="m14 17.5a1.5000001 1.5000001 0 0 1 -1.5 1.5 1.5000001 1.5000001 0 0 1 -1.5-1.5 1.5000001 1.5000001 0 0 1 1.5-1.5 1.5000001 1.5000001 0 0 1 1.5 1.5z" opacity=".2"/><path d="m14 16.5a1.5000001 1.5000001 0 0 1 -1.5 1.5 1.5000001 1.5000001 0 0 1 -1.5-1.5 1.5000001 1.5000001 0 0 1 1.5-1.5 1.5000001 1.5000001 0 0 1 1.5 1.5z" fill="#ffe15e"/><path d="m22 22.5a1.5000001 1.5000001 0 0 1 -1.5 1.5 1.5000001 1.5000001 0 0 1 -1.5-1.5 1.5000001 1.5000001 0 0 1 1.5-1.5 1.5000001 1.5000001 0 0 1 1.5 1.5z" opacity=".2"/><path d="m22 21.5a1.5000001 1.5000001 0 0 1 -1.5 1.5 1.5000001 1.5000001 0 0 1 -1.5-1.5 1.5000001 1.5000001 0 0 1 1.5-1.5 1.5000001 1.5000001 0 0 1 1.5 1.5z" fill="#ffe15e"/><path d="m14 27.5a1.5000001 1.5000001 0 0 1 -1.5 1.5 1.5000001 1.5000001 0 0 1 -1.5-1.5 1.5000001 1.5000001 0 0 1 1.5-1.5 1.5000001 1.5000001 0 0 1 1.5 1.5z" opacity=".2"/><path d="m14 26.5a1.5000001 1.5000001 0 0 1 -1.5 1.5 1.5000001 1.5000001 0 0 1 -1.5-1.5 1.5000001 1.5000001 0 0 1 1.5-1.5 1.5000001 1.5000001 0 0 1 1.5 1.5z" fill="#ffe15e"/><path d="m19 16.00001a1 1 0 0 1 -.999999.999999 1 1 0 0 1 -1.000001-.999999 1 1 0 0 1 1.000001-1.000001 1 1 0 0 1  .999999 1.000001z" opacity=".2"/><path d="m19 15.00001a1 1 0 0 1 -.999999.999999 1 1 0 0 1 -1.000001-.999999 1 1 0 0 1 1.000001-1.000001 1 1 0 0 1  .999999 1.000001z" fill="#ffe15e"/><path d="m16 23.999999a1 1 0 0 1 -.999999 1.000001 1 1 0 0 1 -1.000001-1.000001 1 1 0 0 1 1.000001-.999999 1 1 0 0 1  .999999.999999z" opacity=".2"/><path d="m16 22.999999a1 1 0 0 1 -.999999 1.000001 1 1 0 0 1 -1.000001-1.000001 1 1 0 0 1 1.000001-.999999 1 1 0 0 1  .999999.999999z" fill="#ffe15e"/><path d="m21 27.999999a1 1 0 0 1 -.999999 1.000001 1 1 0 0 1 -1.000001-1.000001 1 1 0 0 1 1.000001-.999999 1 1 0 0 1  .999999.999999z" opacity=".2"/><path d="m21 26.999999a1 1 0 0 1 -.999999 1.000001 1 1 0 0 1 -1.000001-1.000001 1 1 0 0 1 1.000001-.999999 1 1 0 0 1  .999999.999999z" fill="#ffe15e"/><path d="m11 20.999999a1.0000001 1.0000001 0 0 1 -.999999 1.000001 1.0000001 1.0000001 0 0 1 -1.000001-1.000001 1.0000001 1.0000001 0 0 1 1.000001-.999999 1.0000001 1.0000001 0 0 1  .999999.999999z" opacity=".2"/><path d="m11 19.999999a1.0000001 1.0000001 0 0 1 -.999999 1.000001 1.0000001 1.0000001 0 0 1 -1.000001-1.000001 1.0000001 1.0000001 0 0 1 1.000001-.999999 1.0000001 1.0000001 0 0 1  .999999.999999z" fill="#ffe15e"/><path d="m24.999995 25.999999a1 1 0 0 1 -.999999 1.000001 1 1 0 0 1 -1.000001-1.000001 1 1 0 0 1 1.000001-.999999 1 1 0 0 1  .999999.999999z" opacity=".2"/><path d="m24.999995 24.999999a1 1 0 0 1 -.999999 1.000001 1 1 0 0 1 -1.000001-1.000001 1 1 0 0 1 1.000001-.999999 1 1 0 0 1  .999999.999999z" fill="#ffe15e"/><path d="m16 2c-.540903.008-.926388.3456675-1.107422.9042969l-.84375 3.1210937h-2.865234c-.0062-.0001037-.013272-.0001037-.019532 0-.342256.011486-.649756.1770013-.867187.4511719-.3652715.4342719-.3783687.8051133-.089844 1.1445313.03323-.0488389.047368-.0940314.089844-.1445313.217431-.2741706.524931-.4396859.867187-.4511719.00626-.0001037.013332-.0001037.019532 0h2.865234l.84375-3.1210937c.181034-.5586294.566519-.8962969 1.107422-.9042969.540901.0080075.926191.3456676 1.107422.9042969l.84375 3.1210937h2.865234c.00625-.0001037.013332-.0001037.019532 0 .342255.01149.649757.1770013.867187.4511719.042476.0504998.056614.0956924.089844.1445313.288524-.3394184.275427-.7102596-.089844-1.1445313-.21743-.2741706-.524932-.4396819-.867187-.4511719-.0062-.0001037-.013282-.0001037-.019532 0h-2.865234l-.84375-3.1210937c-.181231-.5586293-.566521-.8962894-1.107422-.9042969zm-3.476562 8.421875-.621094 2.003906c-.000975.0031-.002906.006566-.003906.009766-.083856.285313-.053623.571958.054687.828125l.822266-2.650391zm6.953124 0-.251953.191406.822266 2.650391c.108311-.256167.138543-.542812.054687-.828125-.0009-.0031-.002906-.006566-.003906-.009766z" fill="#fff" opacity=".2"/></svg>

<svg xmlns="http://www.w3.org/2000/svg" width="32" height="32" version="1">
 <path d="m 16.129392,11.003064 a 2.7606788,2.7809493 0 0 0 -2.520484,1.38762 l -3.6189847,6.314894 -3.6203321,6.314893 a 2.7606788,2.7809493 0 0 0 0.8437549,3.693079 c 0,0 3.4777419,2.28645 8.7866519,2.28645 5.308912,0 8.786654,-2.28645 8.786654,-2.28645 a 2.7606788,2.7809493 0 0 0 0.843757,-3.693079 l -3.620334,-6.314893 -3.618984,-6.314894 a 2.7606788,2.7809493 0 0 0 -2.261699,-1.38762 z" style="opacity:0.2"/>
 <path style="fill:#337f36" d="m 16.129392,10.003064 a 2.7606788,2.7809493 0 0 0 -2.520484,1.38762 l -3.6189847,6.314894 -3.6203321,6.314893 a 2.7606788,2.7809493 0 0 0 0.8437549,3.693079 c 0,0 3.4777419,2.28645 8.7866519,2.28645 5.308912,0 8.786654,-2.28645 8.786654,-2.28645 a 2.7606788,2.7809493 0 0 0 0.843757,-3.693079 l -3.620334,-6.314893 -3.618984,-6.314894 a 2.7606788,2.7809493 0 0 0 -2.261699,-1.38762 z"/>
 <path style="opacity:0.2" d="m 16.116453,8.002757 a 2.4846111,2.5028545 0 0 0 -2.268435,1.2488581 l -3.257086,5.6834039 -3.2582998,5.683405 a 2.4846111,2.5028545 0 0 0 0.7593794,3.323771 c 0,0 3.1299684,2.057805 7.9079864,2.057805 4.778022,0 7.90799,-2.057805 7.90799,-2.057805 a 2.4846111,2.5028545 0 0 0 0.75938,-3.323771 l -3.2583,-5.683405 -3.257085,-5.6834039 A 2.4846111,2.5028545 0 0 0 16.116453,8.002757 Z"/>
 <path d="m 16.116453,7.002757 a 2.4846111,2.5028545 0 0 0 -2.268435,1.2488581 l -3.257086,5.6834039 -3.2582998,5.683405 a 2.4846111,2.5028545 0 0 0 0.7593794,3.323771 c 0,0 3.1299684,2.057805 7.9079864,2.057805 4.778022,0 7.90799,-2.057805 7.90799,-2.057805 a 2.4846111,2.5028545 0 0 0 0.75938,-3.323771 l -3.2583,-5.683405 -3.257085,-5.6834039 A 2.4846111,2.5028545 0 0 0 16.116453,7.002757 Z" style="fill:#3e9d43"/>
 <path d="m 16.090574,7.0021539 a 1.9324741,1.9466633 0 0 0 -1.764337,0.9713334 l -2.533288,4.4204217 -2.5342309,4.420424 a 1.9324741,1.9466633 0 0 0 0.5906281,2.585153 c 0,0 2.4344178,1.600514 6.1506518,1.600514 3.716237,0 6.150655,-1.600514 6.150655,-1.600514 a 1.9324741,1.9466633 0 0 0 0.590629,-2.585153 L 20.20705,12.393909 17.673762,7.9734873 A 1.9324741,1.9466633 0 0 0 16.090574,7.0021539 Z" style="opacity:0.2"/>
 <path style="fill:#5dc062" d="m 16.090574,6.0021539 a 1.9324741,1.9466633 0 0 0 -1.764337,0.9713334 l -2.533288,4.4204217 -2.5342309,4.420424 a 1.9324741,1.9466633 0 0 0 0.5906281,2.585153 c 0,0 2.4344178,1.600514 6.1506518,1.600514 3.716237,0 6.150655,-1.600514 6.150655,-1.600514 a 1.9324741,1.9466633 0 0 0 0.590629,-2.585153 L 20.20705,11.393909 17.673762,6.9734873 A 1.9324741,1.9466633 0 0 0 16.090574,6.0021539 Z"/>
 <path d="m 15.999821,2.9999998 c -0.540903,0.008 -0.926656,0.3454697 -1.10769,0.9040991 l 0.0068,-0.025192 -0.849879,3.1465076 -2.866039,0 c -0.0062,-1.037e-4 -0.01216,-1.037e-4 -0.01842,0 -0.342256,0.011486 -0.650864,0.1770005 -0.868295,0.4511711 -0.4702367,0.5590652 -0.3705707,1.0132913 0.226561,1.4302347 l 2.253322,1.7056607 -0.874433,2.813663 c -9.75e-4,0.0031 -0.0018,0.0062 -0.0028,0.0094 -0.133614,0.45461 -0.008,0.922966 0.328122,1.243357 0.0024,0.0024 0.0053,0.0047 0.0078,0.0071 0.403874,0.371862 0.971341,0.419125 1.427439,0.111328 0.0087,-0.0059 0.01731,-0.01188 0.02566,-0.01816 l 2.311928,-1.729096 2.311917,1.729096 c 0.0084,0.0062 0.01698,0.01235 0.02566,0.01816 0.456097,0.307797 1.023566,0.260534 1.427439,-0.111328 0.0024,-0.0024 0.0053,-0.0046 0.0078,-0.0071 0.33609,-0.320391 0.461735,-0.788747 0.328121,-1.243357 -9e-4,-0.0031 -0.0018,-0.0062 -0.0028,-0.0094 l -0.874389,-2.813663 2.253323,-1.7056602 c 0.59713,-0.4169442 0.696796,-0.8711703 0.22656,-1.4302352 -0.21743,-0.2741706 -0.526038,-0.4396812 -0.868294,-0.4511712 -0.0062,-1.037e-4 -0.01216,-1.037e-4 -0.01841,0 l -2.866039,0 -0.84988,-3.1465076 0.0068,0.025192 C 16.926474,3.3454695 16.540722,3.0080073 15.999821,2.9999998 Z" style="opacity:0.2"/>
 <path style="fill:#ae3030" d="m 15.999821,1.9999998 c -0.540903,0.008 -0.926656,0.3454697 -1.10769,0.9040991 l 0.0068,-0.025192 -0.849879,3.1465076 -2.866039,0 c -0.0062,-1.037e-4 -0.01216,-1.037e-4 -0.01842,0 -0.342256,0.011486 -0.650864,0.1770005 -0.868295,0.4511711 -0.4702367,0.5590652 -0.3705707,1.0132913 0.226561,1.4302347 l 2.253322,1.7056612 -0.874433,2.8136625 c -9.75e-4,0.0031 -0.0018,0.0062 -0.0028,0.0094 -0.133614,0.45461 -0.008,0.922966 0.328122,1.243357 0.0024,0.0024 0.0053,0.0047 0.0078,0.0071 0.403874,0.371862 0.971341,0.419125 1.427439,0.111328 0.0087,-0.0059 0.01731,-0.01188 0.02566,-0.01816 l 2.311928,-1.729096 2.311917,1.729096 c 0.0084,0.0062 0.01698,0.01235 0.02566,0.01816 0.456097,0.307797 1.023566,0.260534 1.427439,-0.111328 0.0024,-0.0024 0.0053,-0.0046 0.0078,-0.0071 0.33609,-0.320391 0.461735,-0.788747 0.328121,-1.243357 -9e-4,-0.0031 -0.0018,-0.0062 -0.0028,-0.0094 L 19.223645,9.6124812 21.476968,7.9068208 c 0.59713,-0.4169442 0.696796,-0.8711703 0.22656,-1.4302352 -0.21743,-0.2741706 -0.526038,-0.4396812 -0.868294,-0.4511712 -0.0062,-1.037e-4 -0.01216,-1.037e-4 -0.01841,0 l -2.866039,0 -0.84988,-3.1465076 0.0068,0.025192 C 16.926474,2.3454695 16.540722,2.0080073 15.999821,1.9999998 Z"/>
 <path d="M 14,17.5 A 1.5000001,1.5000001 0 0 1 12.5,19 1.5000001,1.5000001 0 0 1 11,17.5 1.5000001,1.5000001 0 0 1 12.5,16 1.5000001,1.5000001 0 0 1 14,17.5 Z" style="opacity:0.2"/>
 <path style="fill:#ffe15e" d="M 14,16.5 A 1.5000001,1.5000001 0 0 1 12.5,18 1.5000001,1.5000001 0 0 1 11,16.5 1.5000001,1.5000001 0 0 1 12.5,15 1.5000001,1.5000001 0 0 1 14,16.5 Z"/>
 <path style="opacity:0.2" d="M 22,22.5 A 1.5000001,1.5000001 0 0 1 20.5,24 1.5000001,1.5000001 0 0 1 19,22.5 1.5000001,1.5000001 0 0 1 20.5,21 1.5000001,1.5000001 0 0 1 22,22.5 Z"/>
 <path d="M 22,21.5 A 1.5000001,1.5000001 0 0 1 20.5,23 1.5000001,1.5000001 0 0 1 19,21.5 1.5000001,1.5000001 0 0 1 20.5,20 1.5000001,1.5000001 0 0 1 22,21.5 Z" style="fill:#ffe15e"/>
 <path d="M 14,27.5 A 1.5000001,1.5000001 0 0 1 12.5,29 1.5000001,1.5000001 0 0 1 11,27.5 1.5000001,1.5000001 0 0 1 12.5,26 1.5000001,1.5000001 0 0 1 14,27.5 Z" style="opacity:0.2"/>
 <path style="fill:#ffe15e" d="M 14,26.5 A 1.5000001,1.5000001 0 0 1 12.5,28 1.5000001,1.5000001 0 0 1 11,26.5 1.5000001,1.5000001 0 0 1 12.5,25 1.5000001,1.5000001 0 0 1 14,26.5 Z"/>
 <path style="opacity:0.2" d="M 19,16.00001 A 1,1 0 0 1 18.000001,17.000009 1,1 0 0 1 17,16.00001 1,1 0 0 1 18.000001,15.000009 1,1 0 0 1 19,16.00001 Z"/>
 <path d="M 19,15.00001 A 1,1 0 0 1 18.000001,16.000009 1,1 0 0 1 17,15.00001 1,1 0 0 1 18.000001,14.000009 1,1 0 0 1 19,15.00001 Z" style="fill:#ffe15e"/>
 <path d="M 16,23.999999 A 1,1 0 0 1 15.000001,25 1,1 0 0 1 14,23.999999 1,1 0 0 1 15.000001,23 1,1 0 0 1 16,23.999999 Z" style="opacity:0.2"/>
 <path style="fill:#ffe15e" d="M 16,22.999999 A 1,1 0 0 1 15.000001,24 1,1 0 0 1 14,22.999999 1,1 0 0 1 15.000001,22 1,1 0 0 1 16,22.999999 Z"/>
 <path style="opacity:0.2" d="M 21,27.999999 A 1,1 0 0 1 20.000001,29 1,1 0 0 1 19,27.999999 1,1 0 0 1 20.000001,27 1,1 0 0 1 21,27.999999 Z"/>
 <path d="M 21,26.999999 A 1,1 0 0 1 20.000001,28 1,1 0 0 1 19,26.999999 1,1 0 0 1 20.000001,26 1,1 0 0 1 21,26.999999 Z" style="fill:#ffe15e"/>
 <path style="opacity:0.2" d="M 11,20.999999 A 1.0000001,1.0000001 0 0 1 10.000001,22 1.0000001,1.0000001 0 0 1 9,20.999999 1.0000001,1.0000001 0 0 1 10.000001,20 1.0000001,1.0000001 0 0 1 11,20.999999 Z"/>
 <path d="M 11,19.999999 A 1.0000001,1.0000001 0 0 1 10.000001,21 1.0000001,1.0000001 0 0 1 9,19.999999 1.0000001,1.0000001 0 0 1 10.000001,19 1.0000001,1.0000001 0 0 1 11,19.999999 Z" style="fill:#ffe15e"/>
 <path d="M 24.999995,25.999999 A 1,1 0 0 1 23.999996,27 1,1 0 0 1 22.999995,25.999999 1,1 0 0 1 23.999996,25 a 1,1 0 0 1 0.999999,0.999999 z" style="opacity:0.2"/>
 <path style="fill:#ffe15e" d="M 24.999995,24.999999 A 1,1 0 0 1 23.999996,26 1,1 0 0 1 22.999995,24.999999 1,1 0 0 1 23.999996,24 a 1,1 0 0 1 0.999999,0.999999 z"/>
 <path style="fill:#ffffff;opacity:0.2" d="M 16 2 C 15.459097 2.008 15.073612 2.3456675 14.892578 2.9042969 L 14.048828 6.0253906 L 11.183594 6.0253906 C 11.177394 6.0252869 11.170322 6.0252869 11.164062 6.0253906 C 10.821806 6.0368766 10.514306 6.2023919 10.296875 6.4765625 C 9.9316035 6.9108344 9.9185063 7.2816758 10.207031 7.6210938 C 10.240261 7.5722549 10.254399 7.5270624 10.296875 7.4765625 C 10.514306 7.2023919 10.821806 7.0368766 11.164062 7.0253906 C 11.170322 7.0252869 11.177394 7.0252869 11.183594 7.0253906 L 14.048828 7.0253906 L 14.892578 3.9042969 C 15.073612 3.3456675 15.459097 3.008 16 3 C 16.540901 3.0080075 16.926191 3.3456676 17.107422 3.9042969 L 17.951172 7.0253906 L 20.816406 7.0253906 C 20.822656 7.0252869 20.829738 7.0252869 20.835938 7.0253906 C 21.178193 7.0368806 21.485695 7.2023919 21.703125 7.4765625 C 21.745601 7.5270623 21.759739 7.5722549 21.792969 7.6210938 C 22.081493 7.2816754 22.068396 6.9108342 21.703125 6.4765625 C 21.485695 6.2023919 21.178193 6.0368806 20.835938 6.0253906 C 20.829738 6.0252869 20.822656 6.0252869 20.816406 6.0253906 L 17.951172 6.0253906 L 17.107422 2.9042969 C 16.926191 2.3456676 16.540901 2.0080075 16 2 z M 12.523438 10.421875 L 11.902344 12.425781 C 11.901369 12.428881 11.899438 12.432347 11.898438 12.435547 C 11.814582 12.72086 11.844815 13.007505 11.953125 13.263672 L 12.775391 10.613281 L 12.523438 10.421875 z M 19.476562 10.421875 L 19.224609 10.613281 L 20.046875 13.263672 C 20.155186 13.007505 20.185418 12.72086 20.101562 12.435547 C 20.100662 12.432447 20.098656 12.428981 20.097656 12.425781 L 19.476562 10.421875 z"/>
</svg>
